X:35
T:Old Faithful
R:march
C:Jerry Holland
O:Cape Breton Island
S:http://www.cranfordpub.com
B:Jerry Hollands Collection of Fiddle Tunes
D:A Session with Jerry Holland
Z:psc, (re-formatted,updated 9/19/04)
N:http://www.jerryholland.com
H:                                                        copyrights Fiddlesticksmusic, SOCAN
L:1/8
Q:244
M:C|
K:D
ag|f2 ed c2 Bc|d2 AG F2 ED|1GFGB AFdA|F2 E2 E2 ag|
f2 ed c2 Bc|dABG F2 ED|GBdB AFGE|F2 D2 D2:|2GFGB AcdF|
F2 E2 E2 ag|f2 ef gedc|d>AB<G F2 ED|GBdB A>FG>E|F2 D2 D2||
|:fg|abag f2 ef|gage c2BA|dcde f<agf|e2 E2 E2 fg|
abag f2 ef|gedc d2 (3(AB=c)|BAGB AFdA|F2 D2 D2 fg|
abag f2 ef|gedc d2 (3(AB=c)|BAGB AFdA|F2 E2 EGFE|
D>FA<d E>GB<e|F>Adf g2 bg|a>fe>d c>ba<g|f2 d2 d2|]
